!!!SOCIAL_FUNCTION:	songs of medicine men's dance
!!!PDT:	1956
!!!OTL: No_21_Corn_Dance_Song_(k).krn
!!!LANG: Non-Tone
!!!LING_GROUP: Muskogean
!!!REG: Florida
**kern
*staff1
=1-
=
*clefF4
*k[b-]
*M2/4
4c\
4d\
=2
4d\
4c\
=3||
*M3/4
4c\
4c\
4G\
=4||
*M2/4
4c\
8.B-\L
16B-\Jk
=5
4.c\
8B-\
=6
4c\
4G\
=7
4F\
12G\L
8F\
24G\Jk
=8
8G\L
[8F\J
4F\]
=9
4F\
4D\
=10
4C/
4C/
=11
4D\
4F\
=12
4D\
4C/
=13||
*M3/4
4C/
4C/
4r
=14||
*M2/4
4.C/
8C/
=15
2C/
=16
4F\
8.D\L
16D\Jk
=17
4D\
4C/
=18
4D\
4F\
=19
4D\
4C/
=20
4C/
4r
=21
4.C/
8C/
=22
2C/
==:|!
*-
